X: 14
T:Jag unnar dig \"and\aa allt gott
M:C
L:1/4
C:anon.
O:Sweden
Z:Transcribed by Frank Nordberg - http://www.musicaviva.com
K:Gm
d|g (g/a/) b (b/a/)|g (g/f/) d B/c/|dd ^ff|
g2 z :|d|g (b/c'/) d' c'|bb a z/ f/|
g (g/a/) c' b|g g f/ z/ (d/c/)|dd ^ff|g3|]
W:
W: From "Falaleiro" http://home.t-online.de/home/pheld/homepage.htm

